!!!OTL: Mande/
!!!ONR: No. 16
!! From Jaap Kunst "Music in New Guinea; Three Studies"
!! Verhandelingen van het Koninkluijk Instituut voor Taal-,
!! Land- end Volkenkunde, Deel 53
!! English translation and correction by Jeune Scott-Kemball
!! Publication Place: 'S-Gravenhage
!! Publisher: Martinus Nijhoff, 1967
!! From Chapter II: Songs of New Guinea, page 94
!!PLACE: Pacifica, New Guinea, Humboldt Bay, Hollandia (village)
!!SINGER: Simon, the head of the village Hollandia
!!!PSX: M
!!!ENCODER: D. Huron
**kern
*clefF4
*k[]
*M6/8
*>[Pickup,A,End1a,A,B,C,End1b,C,D,E,End1c,E,End]
*>Pickup
8G
*>A
=1||:
4.A
4c
8c
=2
*M7/8
8A
8G
8G
4.G,
8G
=3
*M6/8
4A
8G
4G
8G
=
!! First ending
*>End1a
[4.G
4G]
8G
=:||
*>B
[4.G
4G]
16G
16G
=
4A
8A
4c
8c
=
*M7/8
4.c
4.A,
8c
=
*M6/8
8A
8G
8G
4G
8G
=
[4.G
4G]
8G
*>C
=||:
4.A
4c
8c
=
*M7/8
8A
8G
8G
4.G,
8G
=
4A
8G
4G
8G
=
*>End1b
[4.G
4G]
8G
=:||
*>D
[4.G
4G]
16G
16G
=
4A
8A
4c
8c
=
*M7/8
4.c
4.A,
8c
=
*M6/8
8A
8G
8G
4G
8G
=
[4.G
4G]
8G
=
4.A
4c
8c
=
*M7/8
8A
8G
8G
4.G,
8G
=
*M6/8
4A
8G
4G
8G
=
[4.G
4G]
8G
=
4.A
4c
8c
=
8A
8G
8G
4.G;
16d
16d
*>E
=||:
*M3/4
[2d
8d]
16e
16e
=
4.c
8A
8G
16G
16G
=
4G
[4G
8G]
16G
16G
=
*M7/8
4A
8c
8c
8A
8G
8G
=
*M6/8
4A
8G
4G
8G
=
[4.G
4G]
16G
16G
=
*M7/8
4A
8c
8c
8A
8G
8G
=
*M6/8
4A
8G
4G
8G
=
*>End1c
[4.G
4G]
16d
16d
*>End
4G
8A
4c
8A
=
4.G
==|!
!! etc.
*-
